src/pos-icons/beaker-remove.svg

<svg height="24" viewBox="0 0 24 24" width="24" xmlns="http://www.w3.org/2000/svg"><path d="m15.46 15.88 1.42-1.42 2.12 2.13 2.12-2.12 1.41 1.41-2.12 2.12 2.13 2.12-1.42 1.42-2.12-2.13-2.12 2.12-1.41-1.41 2.12-2.12zm-12.46-12.88h18v2c-1.1 0-2 .9-2 2v5c-3.31 0-6 2.69-6 6 0 1.09.29 2.12.8 3h-6.8c-1.1 0-2-.9-2-2v-12c0-1.1-.9-2-2-2zm4 6v1h3v-1zm0 2v1h3v-1zm3 5v-1h-3v1zm2-2v-1h-5v1zm0-6v-1h-5v1z"/></svg>

<?xml version="1.0" encoding="UTF-8"?><!DOCTYPE svg PUBLIC "-//W3C//DTD SVG 1.1//EN" "http://www.w3.org/Graphics/SVG/1.1/DTD/svg11.dtd"><svg xmlns="http://www.w3.org/2000/svg" xmlns:xlink="http://www.w3.org/1999/xlink" version="1.1" id="mdi-beaker-remove" width="24" height="24" viewBox="0 0 24 24"><path d="M15.46 15.88L16.88 14.46L19 16.59L21.12 14.47L22.53 15.88L20.41 18L22.54 20.12L21.12 21.54L19 19.41L16.88 21.53L15.47 20.12L17.59 18L15.46 15.88M3 3H21V5C19.9 5 19 5.9 19 7V12C15.69 12 13 14.69 13 18C13 19.09 13.29 20.12 13.8 21H7C5.9 21 5 20.1 5 19V7C5 5.9 4.1 5 3 5V3M7 9V10H10V9H7M7 11V12H10V11H7M10 16V15H7V16H10M12 14V13H7V14H12M12 8V7H7V8H12Z" /></svg>
